X: 10766
T: Dr. Neil S. Macleod
R: strathspey
M: 4/4
K: Dmajor
A,/B,/C|D>E F>E D<D D>A|A/B/c d/c/B A<F F>A|B<G B>d A<F A>d|E>A, G>F E>D E<F|
D>E F>E D<D D>A|A/B/c d/c/B A<F F>A|B<G B>d A<F A<A|E/F/A DCD2A/B/c|
d2f>d A<F FA|B>G c<e A>D f<a|b>g g<b a>d f<a|g<b gf e2f2|
D>E F>E D<D D>A|A/B/c d/c/B A<F F>A|B<G B>d A<F A<A|E/F/A DCD2||

